resources/haticons/SVG/voice_over_off.svg

<!-- Generated by IcoMoon.io -->
<svg version="1.1" xmlns="http://www.w3.org/2000/svg" width="24" height="24" viewBox="0 0 24 24">
<title>voice_over_off</title>
<path d="M20.063 2.016q2.906 3.047 2.906 7.055t-2.906 6.914l-1.641-1.594q2.063-2.391 2.063-5.461t-2.063-5.32zM16.781 5.344q1.5 1.641 1.5 3.703t-1.5 3.563l-1.688-1.688q0.656-0.891 0.656-1.945t-0.656-1.945zM4.266 3l16.734 16.734-1.266 1.266-2.953-2.953q0.094 0.234 0.164 0.469t0.070 0.469v2.016h-16.031v-2.016q0-1.781 2.742-2.883t5.273-1.102q0.516 0 1.148 0.070t1.359 0.211 1.406 0.328 1.336 0.469 1.172 0.609l-4.313-4.313q-0.984 0.609-2.109 0.609-1.641 0-2.813-1.172t-1.172-2.813q0-1.125 0.609-2.109l-2.625-2.625zM12.984 9.188l-4.172-4.172h0.188q1.641 0 2.813 1.172t1.172 2.813v0.188z"></path>
</svg>

<svg xmlns="http://www.w3.org/2000/svg" width="24" height="24"><path d="M20.063 2.016q2.906 3.047 2.906 7.055t-2.906 6.914l-1.641-1.594Q20.485 12 20.485 8.93t-2.063-5.32zm-3.282 3.328q1.5 1.641 1.5 3.703t-1.5 3.563l-1.688-1.688q.656-.891.656-1.945t-.656-1.945zM4.266 3L21 19.734 19.734 21l-2.953-2.953q.094.234.164.469t.07.469v2.016H.984v-2.016q0-1.781 2.742-2.883T8.999 15q.516 0 1.148.07t1.359.211 1.406.328 1.336.469 1.172.609l-4.313-4.313q-.984.609-2.109.609-1.641 0-2.813-1.172T5.013 8.998q0-1.125.609-2.109L2.997 4.264zm8.718 6.188L8.812 5.016H9q1.641 0 2.813 1.172t1.172 2.813v.188z"/></svg>
